X: 1
T: the Plough and the Stars
S: attr. Larry Redican
R: reel
Z: id:hn-reel-803
B: McNulty (Dance Music of Ireland), 1965; p. 13.
B: Mulvihill (1st Collection), 1986; #203, p. 55.
M: C|
L: 1/8
K: G
BA |\
"G"GEDE "(D)"GABd | "G"g2bg "D7"aged | "G"Bd~d2 "(D)"ed~d2 | "G"gedB "D7"A2BA || "G"GEDE GABd |
"C"g2bg "D7"aged | "G"Bd~d2 "Em"edBG | "D7"AGAB "G"G2 :: Bd | "G"g3b "D7"a2ba | "G"gabg "D7"aged |
"G"Bd~d2 "Em"ed~d2 | "Am"gedB "D7"A2BA || "G"GEDE "(D)"GABd | "C"g2bg "D7"aged | "G"Bd~d2 "Em"edBG | "D7"AGAB "G"G2 :|
